!!!COM: Giovanni Maria Nanino
!!!OPR: Fourteen Liturgical Works
!!!OTL: Gavisi sunt discipuli
!!!YOR: Richard J. Schuler (editor)
!!!YOR: Madison: A-R Editions, 1969, pp. 16-18.
**kern	**kern	**kern	**kern	**kern
*conseq	*CF	*guida	*conseq	*guida
*k[]	*k[]	*k[]	*k[]	*k[]
*M4/4	*M4/4	*M4/4	*M4/4	*M4/4
=1-	=1-	=1-	=1-	=1-
2r	1A	2A	1r	2r
2AA	.	4.c	.	4r
.	.	.	.	4a
.	.	8c	.	.
=2	=2	=2	=2	=2
4.C	1G	4c	4r	4g
.	.	4c	4a	4e
8C	.	.	.	.
4C	.	[2G	4g	4.g
4C	.	.	4e	.
.	.	.	.	8a
=3	=3	=3	=3	=3
2.GG	1D	4G]	4.g	8b
.	.	.	.	8cc
.	.	4G	.	[4dd
.	.	.	8a	.
.	.	2d	8b	4dd]
.	.	.	8cc	.
4GG	.	.	[4dd	8cc
.	.	.	.	8b
=4	=4	=4	=4	=4
2D	1F	4r	4dd]	2a
.	.	4A	8cc	.
.	.	.	8b	.
4r	.	4.c	2a	4r
4AA	.	.	.	4a
.	.	8c	.	.
=5	=5	=5	=5	=5
4.C	1G	4c	4r	4g
.	.	4c	4a	4e
8C	.	.	.	.
4C	.	[2G	4g	4.g
4C	.	.	4e	.
.	.	.	.	8a
=6	=6	=6	=6	=6
2.GG	1D	4G]	4.g	8b
.	.	.	.	8cc
.	.	4G	.	[4dd
.	.	.	8a	.
.	.	2d	8b	4dd]
.	.	.	8cc	.
4GG	.	.	[4dd	8cc
.	.	.	.	8b
=7	=7	=7	=7	=7
2D	1F	1r	4dd]	4a
.	.	.	8cc	4dd
.	.	.	8b	.
2r	.	.	4a	4dd
.	.	.	4dd	4dd
=8	=8	=8	=8	=8
1r	1G	2r	4dd	2b
.	.	.	4dd	.
.	.	2d	2b	2r
=9	=9	=9	=9	=9
2D	1A	8.f	1r	1r
.	.	16f	.	.
.	.	8f	.	.
.	.	8f	.	.
8.F	.	4c	.	.
16F	.	.	.	.
8F	.	4c	.	.
8F	.	.	.	.
=10	=10	=10	=10	=10
4C	1c	4.e	1r	2r
4C	.	.	.	.
.	.	8f	.	.
4.E	.	2g	.	4r
.	.	.	.	4g
8F	.	.	.	.
=11	=11	=11	=11	=11
2G	1B	2g	4r	4b
.	.	.	4g	4b
2G	.	2d	4b	2dd
.	.	.	4b	.
=12	=12	=12	=12	=12
2D	1A	2f	2dd	2r
2F	.	[2c	2r	4r
.	.	.	.	4c
=13	=13	=13	=13	=13
2.C	1c	4c]	4r	4e
.	.	8B	4c	4e
.	.	8A	.	.
.	.	[2G	4e	4g
8BB	.	.	4e	4g
8AA	.	.	.	.
=14	=14	=14	=14	=14
1BB	1d	2G]	4g	4b
.	.	.	4g	4b
.	.	4r	4b	4dd
.	.	4G	4b	4dd
=15	=15	=15	=15	=15
4r	1G	4B	4dd	4b
4GG	.	4B	4dd	[4dd
4BB	.	4.d	4b	4dd]
4BB	.	.	[4dd	8cc
.	.	8e	.	8b
=16	=16	=16	=16	=16
4.D	1A	2f	4dd]	2a
.	.	.	8cc	.
8E	.	.	8b	.
2F	.	2c	2a	4r
.	.	.	.	[4cc
=17	=17	=17	=17	=17
2C	1G	4e	4r	4cc]
.	.	4e	2cc	2gg
4E	.	[2g	.	.
4E	.	.	[4g	[4b
=18	=18	=18	=18	=18
1G	1d	2g]	4g]	8b]
.	.	.	.	8cc
.	.	.	4.b	4dd
.	.	2r	.	2g
.	.	.	8cc	.
.	.	.	4dd	.
=19	=19	=19	=19	=19
1r	1c	1r	2g	4r
.	.	.	.	4g
.	.	.	4r	4g
.	.	.	4g	4g
=20	=20	=20	=20	=20
2r	1d	2G	4g	8b
.	.	.	.	8a
.	.	.	4g	8b
.	.	.	.	8cc
2GG	.	4G	8b	2dd
.	.	.	8a	.
.	.	4G	8b	.
.	.	.	8cc	.
=21	=21	=21	=21	=21
4GG	1G	8B	2dd	4r
.	.	8A	.	.
4GG	.	8B	.	4d
.	.	8c	.	.
8BB	.	2d	4r	4d
8AA	.	.	.	.
8BB	.	.	4d	4d
8C	.	.	.	.
=22	=22	=22	=22	=22
2D	1F	1r	4d	2f
.	.	.	4d	.
2r	.	.	2f	4r
.	.	.	.	4d
=23	=23	=23	=23	=23
1r	1B-	2r	4r	4d
.	.	.	4d	4d
.	.	2d	4d	8f
.	.	.	.	8e
.	.	.	4d	8f
.	.	.	.	8g
=24	=24	=24	=24	=24
2D	1A	4d	8f	4a
.	.	.	8e	.
.	.	4d	8f	4.a
.	.	.	8g	.
4D	.	8f	4a	.
.	.	8e	.	8g
4D	.	8f	[4a	[4f
.	.	8g	.	.
=25	=25	=25	=25	=25
8F	1D	2a	8a]	4f]
8E	.	.	8g	.
8F	.	.	2f	4d
8G	.	.	.	.
2A	.	4.A	.	2r
.	.	.	4d	.
.	.	8B	.	.
=26	=26	=26	=26	=26
4.AA	1E	4c	1r	1r
.	.	4c	.	.
8BB	.	.	.	.
4C	.	2G	.	.
4C	.	.	.	.
=27	=27	=27	=27	=27
2GG	1G	2r	2r	4.b
.	.	.	.	8cc
2r	.	4.d	4.b	4dd
.	.	.	.	4dd
.	.	8e	8cc	.
=28	=28	=28	=28	=28
4.D	1A	4f	4dd	2a
.	.	4f	4dd	.
8E	.	.	.	.
4F	.	4.c	2a	2r
4F	.	.	.	.
.	.	8d	.	.
=29	=29	=29	=29	=29
4.C	1c	4.e	2r	4r
.	.	.	.	4g
8D	.	8f	.	.
4.E	.	2g	4r	4g
.	.	.	4g	4g
8F	.	.	.	.
=30	=30	=30	=30	=30
2G	1B	2r	4g	2d
.	.	.	4g	.
2r	.	4r	2d	4r
.	.	4d	.	4d
=31	=31	=31	=31	=31
4r	1A	4c	4r	4e
4D	.	4A	4d	4f
4C	.	[2c	4e	8e
.	.	.	.	8d
4AA	.	.	4f	8c
.	.	.	.	8d
=32	=32	=32	=32	=32
2.C	1G	4c]	8e	8e
.	.	.	8d	8f
.	.	4r	8c	4g
.	.	.	8d	.
.	.	4r	8e	4r
.	.	.	8f	.
4r	.	4d	4g	4b-
=33	=33	=33	=33	=33
4r	1F	4d	4r	4a
4D	.	4d	4b-	4f
4D	.	4.A	4a	2a
4D	.	.	4f	.
.	.	8B	.	.
=34	=34	=34	=34	=34
4.AA	1E	2c	2a	2r
8BB	.	.	.	.
2C	.	4r	2r	4r
.	.	8G	.	8g
.	.	8G	.	8g
=35	=35	=35	=35	=35
4r	1D	4d	4r	4f#
8GG	.	4B	8g	4g
8GG	.	.	8g	.
4D	.	8A	4f#	4r
.	.	8A	.	.
4BB	.	4G	4g	8b
.	.	.	.	8b
=36	=36	=36	=36	=36
8AA	1E	4c	4r	4cc
8AA	.	.	.	.
4GG	.	4r	8b	4b
.	.	.	8b	.
4C	.	4r	4cc	4r
4r	.	4G	4b	4g
=37	=37	=37	=37	=37
4r	[1D	4F#	4r	4a
4GG	.	4G	4g	4b-
4FF#	.	[2d	4a	4a
4GG	.	.	4b-	[4g
=38	=38	=38	=38	=38
[1D	1D_	1d_	[1a	4g]
.	.	.	.	8f#
.	.	.	.	8e
.	.	.	.	[2f#
=39	=39	=39	=39	=39
1D]	1D]	1d]	1a]	1f#]
==	==	==	==	==
*-	*-	*-	*-	*-
!!!CDT: 1545///-1607/3/11
!!!OCY: Italia
!!!ODT: 1586
!!!AFR: cantus firmus canon
!!!AST: polyphony
!!!AMT: simple quadruple
!!!AIN: vox
!!!YEP: David Huron and Denis Collins
!!!YEN: Canada
!!!EEV: 1.0
!!!RDT: 1995 April 29
!!!YED: 1995 August 31
